configs/network-icons/artis.svg

<svg width="30" height="30" viewBox="0 0 30 30" fill="none" xmlns="http://www.w3.org/2000/svg">
<path fill-rule="evenodd" clip-rule="evenodd" d="M29.8592 12.993C29.9119 13.0738 29.9511 13.1628 29.9751 13.2564C29.9875 13.2994 29.9953 13.3436 29.9983 13.3882C30.0069 13.5111 29.9829 13.6341 29.9287 13.7447L24.0713 26.7253V26.7873C24.0228 26.8588 23.9627 26.9216 23.8935 26.9733C23.8226 27.0147 23.7475 27.0484 23.6694 27.074H23.5535L9.38895 28.4302H9.31168C9.19916 28.4284 9.08839 28.4019 8.98712 28.3527C8.89998 28.3009 8.82383 28.2324 8.76302 28.1512L0.0850029 16.9453V16.8988V16.8523C0.0382012 16.766 0.00928721 16.6711 0 16.5733H0.0695478C0.0545503 16.4861 0.0545503 16.397 0.0695478 16.3098C0.0728985 16.2945 0.0728985 16.2786 0.0695478 16.2633C0.0736759 16.2507 0.0736759 16.2371 0.0695478 16.2245L5.81883 3.30594C5.86474 3.20811 5.93054 3.121 6.01202 3.0502L6.12793 3.00371C6.22087 2.95072 6.32326 2.9165 6.42931 2.90296L20.5784 1.50028H20.6866C20.8186 1.49631 20.9484 1.53429 21.0575 1.60878C21.1451 1.64652 21.224 1.70191 21.2894 1.77152C21.2921 1.78429 21.2921 1.79749 21.2894 1.81027L29.8592 12.993ZM22.3326 5.72382L24.0867 12.652H27.6568L22.3326 5.72382ZM12.4954 22.2847L22.7112 25.2528V13.5199L20.1689 3.44543L9.80624 9.2499L2.07871 16.4183L12.4954 22.2847ZM9.65942 7.56823L17.0624 3.40669L7.78163 4.32889L9.65942 7.56823ZM8.39983 8.47493L6.59931 5.37509L3.00601 13.4579L8.33801 8.52143L8.39983 8.47493ZM3.72467 19.1229L9.27304 26.299L11.1199 23.2844L3.72467 19.1229ZM19.3961 25.8961L12.5263 23.8967L10.8185 26.7563L19.3961 25.8961ZM24.2567 14.2019V22.6567L28.0355 14.2019H24.2567ZM18.067 9.6371C18.4938 9.6371 18.8397 9.98406 18.8397 10.4121C18.8397 10.8401 18.4938 11.187 18.067 11.187H13.5386L16.3437 14.5659C16.5824 14.8532 16.5824 15.2705 16.3437 15.5578L13.5386 18.9366H18.067C18.4938 18.9366 18.8397 19.2836 18.8397 19.7116C18.8397 20.1396 18.4938 20.4866 18.067 20.4866H11.885C11.5877 20.4857 11.3173 20.314 11.1895 20.0448C11.0588 19.7724 11.0981 19.4487 11.2899 19.2156L14.7441 15.0618L11.2899 10.908C11.0979 10.6768 11.0567 10.3551 11.1842 10.0827C11.3117 9.81033 11.5849 9.63661 11.885 9.6371H18.067Z" fill="#129C6B"/>
</svg>

<svg xmlns="http://www.w3.org/2000/svg" fill="none" viewBox="0 0 30 30">
  <path fill="#129C6B" fill-rule="evenodd" d="M29.86 12.993a.884.884 0 0 1 .138.395.7.7 0 0 1-.07.357l-5.857 12.98v.062a.776.776 0 0 1-.178.186 1.13 1.13 0 0 1-.224.101h-.116L9.39 28.43h-.077a.771.771 0 0 1-.325-.077.774.774 0 0 1-.224-.202L.085 16.945v-.093A.73.73 0 0 1 0 16.573h.07a.777.777 0 0 1 0-.263.109.109 0 0 0 0-.047.062.062 0 0 0 0-.039L5.819 3.306a.775.775 0 0 1 .193-.256l.116-.046a.817.817 0 0 1 .301-.101L20.58 1.5h.108a.624.624 0 0 1 .37.109.696.696 0 0 1 .232.163.094.094 0 0 1 0 .038l8.57 11.183Zm-7.527-7.27 1.754 6.929h3.57l-5.324-6.928Zm-9.838 16.562 10.216 2.968V13.52L20.17 3.445 9.806 9.25 2.08 16.418l10.416 5.867ZM9.66 7.568l7.403-4.161-9.28.922 1.877 3.24Zm-1.26.907-1.8-3.1-3.593 8.083L8.338 8.52l.062-.046ZM3.726 19.123l5.548 7.176 1.847-3.015-7.395-4.161Zm15.671 6.773-6.87-2-1.707 2.86 8.577-.86Zm4.86-11.694v8.455l3.78-8.455h-3.78Zm-6.189-4.565c.427 0 .773.347.773.775a.774.774 0 0 1-.773.775H13.54l2.805 3.379a.776.776 0 0 1 0 .992l-2.805 3.379h4.528a.774.774 0 0 1 0 1.55h-6.182a.777.777 0 0 1-.595-1.271l3.454-4.154-3.454-4.154a.777.777 0 0 1 .595-1.27h6.182Z" clip-rule="evenodd"/>
</svg>
